( Made using CamBam - http://www.cambam.co.uk )
( piezagopro 6/13/2012 11:46:48 PM )
( T3 : 3.0 )
G21 G90 G64 G40
G0 Z3.0
( T3 : 3.0 )
T3 M6
( Drill1 )
G17
M3 S1000
G0 X5.0 Y10.0
G98
G81 X5.0 Y10.0 Z-10.0 R3.0 F300.0
G80
( Drill2 )
S1000
G0 X55.0
G98
G81 X55.0 Y10.0 Z-10.0 R3.0
G80
( Profile1 )
S1000
G0 X-1.5 Y13.0
G1 Z-0.5
G1 F800.0 Y0.0
G3 X0.0 Y-1.5 I1.5 J0.0
G1 X60.0
G3 X61.5 Y0.0 I0.0 J1.5
G1 Y13.0
G3 X58.0 Y16.5 I-3.5 J0.0
G1 X52.0
G3 X48.5 Y13.0 I0.0 J-3.5
G1 Y6.5
G1 X11.5
G1 Y13.0
G3 X8.0 Y16.5 I-3.5 J0.0
G1 X2.0
G3 X-1.5 Y13.0 I0.0 J-3.5
G1 F300.0 Z-1.0
G1 F800.0 Y0.0
G3 X0.0 Y-1.5 I1.5 J0.0
G1 X60.0
G3 X61.5 Y0.0 I0.0 J1.5
G1 Y13.0
G3 X58.0 Y16.5 I-3.5 J0.0
G1 X52.0
G3 X48.5 Y13.0 I0.0 J-3.5
G1 Y6.5
G1 X11.5
G1 Y13.0
G3 X8.0 Y16.5 I-3.5 J0.0
G1 X2.0
G3 X-1.5 Y13.0 I0.0 J-3.5
G1 F300.0 Z-1.5
G1 F800.0 Y0.0
G3 X0.0 Y-1.5 I1.5 J0.0
G1 X60.0
G3 X61.5 Y0.0 I0.0 J1.5
G1 Y13.0
G3 X58.0 Y16.5 I-3.5 J0.0
G1 X52.0
G3 X48.5 Y13.0 I0.0 J-3.5
G1 Y6.5
G1 X11.5
G1 Y13.0
G3 X8.0 Y16.5 I-3.5 J0.0
G1 X2.0
G3 X-1.5 Y13.0 I0.0 J-3.5
G1 F300.0 Z-2.0
G1 F800.0 Y0.0
G3 X0.0 Y-1.5 I1.5 J0.0
G1 X60.0
G3 X61.5 Y0.0 I0.0 J1.5
G1 Y13.0
G3 X58.0 Y16.5 I-3.5 J0.0
G1 X52.0
G3 X48.5 Y13.0 I0.0 J-3.5
G1 Y6.5
G1 X11.5
G1 Y13.0
G3 X8.0 Y16.5 I-3.5 J0.0
G1 X2.0
G3 X-1.5 Y13.0 I0.0 J-3.5
G1 F300.0 Z-2.5
G1 F800.0 Y0.0
G3 X0.0 Y-1.5 I1.5 J0.0
G1 X60.0
G3 X61.5 Y0.0 I0.0 J1.5
G1 Y13.0
G3 X58.0 Y16.5 I-3.5 J0.0
G1 X52.0
G3 X48.5 Y13.0 I0.0 J-3.5
G1 Y6.5
G1 X11.5
G1 Y13.0
G3 X8.0 Y16.5 I-3.5 J0.0
G1 X2.0
G3 X-1.5 Y13.0 I0.0 J-3.5
G1 F300.0 Z-3.0
G1 F800.0 Y0.0
G3 X0.0 Y-1.5 I1.5 J0.0
G1 X60.0
G3 X61.5 Y0.0 I0.0 J1.5
G1 Y13.0
G3 X58.0 Y16.5 I-3.5 J0.0
G1 X52.0
G3 X48.5 Y13.0 I0.0 J-3.5
G1 Y6.5
G1 X11.5
G1 Y13.0
G3 X8.0 Y16.5 I-3.5 J0.0
G1 X2.0
G3 X-1.5 Y13.0 I0.0 J-3.5
G1 F300.0 Z-3.5
G1 F800.0 Y0.0
G3 X0.0 Y-1.5 I1.5 J0.0
G1 X60.0
G3 X61.5 Y0.0 I0.0 J1.5
G1 Y13.0
G3 X58.0 Y16.5 I-3.5 J0.0
G1 X52.0
G3 X48.5 Y13.0 I0.0 J-3.5
G1 Y6.5
G1 X11.5
G1 Y13.0
G3 X8.0 Y16.5 I-3.5 J0.0
G1 X2.0
G3 X-1.5 Y13.0 I0.0 J-3.5
G1 F300.0 Z-4.0
G1 F800.0 Y0.0
G3 X0.0 Y-1.5 I1.5 J0.0
G1 X60.0
G3 X61.5 Y0.0 I0.0 J1.5
G1 Y13.0
G3 X58.0 Y16.5 I-3.5 J0.0
G1 X52.0
G3 X48.5 Y13.0 I0.0 J-3.5
G1 Y6.5
G1 X11.5
G1 Y13.0
G3 X8.0 Y16.5 I-3.5 J0.0
G1 X2.0
G3 X-1.5 Y13.0 I0.0 J-3.5
G1 F300.0 Z-4.5
G1 F800.0 Y0.0
G3 X0.0 Y-1.5 I1.5 J0.0
G1 X60.0
G3 X61.5 Y0.0 I0.0 J1.5
G1 Y13.0
G3 X58.0 Y16.5 I-3.5 J0.0
G1 X52.0
G3 X48.5 Y13.0 I0.0 J-3.5
G1 Y6.5
G1 X11.5
G1 Y13.0
G3 X8.0 Y16.5 I-3.5 J0.0
G1 X2.0
G3 X-1.5 Y13.0 I0.0 J-3.5
G1 F300.0 Z-5.0
G1 F800.0 Y0.0
G3 X0.0 Y-1.5 I1.5 J0.0
G1 X60.0
G3 X61.5 Y0.0 I0.0 J1.5
G1 Y13.0
G3 X58.0 Y16.5 I-3.5 J0.0
G1 X52.0
G3 X48.5 Y13.0 I0.0 J-3.5
G1 Y6.5
G1 X11.5
G1 Y13.0
G3 X8.0 Y16.5 I-3.5 J0.0
G1 X2.0
G3 X-1.5 Y13.0 I0.0 J-3.5
G1 F300.0 Z-5.5
G1 F800.0 Y0.0
G3 X0.0 Y-1.5 I1.5 J0.0
G1 X60.0
G3 X61.5 Y0.0 I0.0 J1.5
G1 Y13.0
G3 X58.0 Y16.5 I-3.5 J0.0
G1 X52.0
G3 X48.5 Y13.0 I0.0 J-3.5
G1 Y6.5
G1 X11.5
G1 Y13.0
G3 X8.0 Y16.5 I-3.5 J0.0
G1 X2.0
G3 X-1.5 Y13.0 I0.0 J-3.5
G1 F300.0 Z-6.0
G1 F800.0 Y0.0
G3 X0.0 Y-1.5 I1.5 J0.0
G1 X60.0
G3 X61.5 Y0.0 I0.0 J1.5
G1 Y13.0
G3 X58.0 Y16.5 I-3.5 J0.0
G1 X52.0
G3 X48.5 Y13.0 I0.0 J-3.5
G1 Y6.5
G1 X11.5
G1 Y13.0
G3 X8.0 Y16.5 I-3.5 J0.0
G1 X2.0
G3 X-1.5 Y13.0 I0.0 J-3.5
G1 F300.0 Z-6.5
G1 F800.0 Y0.0
G3 X0.0 Y-1.5 I1.5 J0.0
G1 X60.0
G3 X61.5 Y0.0 I0.0 J1.5
G1 Y13.0
G3 X58.0 Y16.5 I-3.5 J0.0
G1 X52.0
G3 X48.5 Y13.0 I0.0 J-3.5
G1 Y6.5
G1 X11.5
G1 Y13.0
G3 X8.0 Y16.5 I-3.5 J0.0
G1 X2.0
G3 X-1.5 Y13.0 I0.0 J-3.5
G1 F300.0 Z-7.0
G1 F800.0 Y0.0
G3 X0.0 Y-1.5 I1.5 J0.0
G1 X60.0
G3 X61.5 Y0.0 I0.0 J1.5
G1 Y13.0
G3 X58.0 Y16.5 I-3.5 J0.0
G1 X52.0
G3 X48.5 Y13.0 I0.0 J-3.5
G1 Y6.5
G1 X11.5
G1 Y13.0
G3 X8.0 Y16.5 I-3.5 J0.0
G1 X2.0
G3 X-1.5 Y13.0 I0.0 J-3.5
G1 F300.0 Z-7.5
G1 F800.0 Y0.0
G3 X0.0 Y-1.5 I1.5 J0.0
G1 X60.0
G3 X61.5 Y0.0 I0.0 J1.5
G1 Y13.0
G3 X58.0 Y16.5 I-3.5 J0.0
G1 X52.0
G3 X48.5 Y13.0 I0.0 J-3.5
G1 Y6.5
G1 X11.5
G1 Y13.0
G3 X8.0 Y16.5 I-3.5 J0.0
G1 X2.0
G3 X-1.5 Y13.0 I0.0 J-3.5
G1 F300.0 Z-8.0
G1 F800.0 Y0.0
G3 X0.0 Y-1.5 I1.5 J0.0
G1 X60.0
G3 X61.5 Y0.0 I0.0 J1.5
G1 Y13.0
G3 X58.0 Y16.5 I-3.5 J0.0
G1 X52.0
G3 X48.5 Y13.0 I0.0 J-3.5
G1 Y6.5
G1 X11.5
G1 Y13.0
G3 X8.0 Y16.5 I-3.5 J0.0
G1 X2.0
G3 X-1.5 Y13.0 I0.0 J-3.5
G1 F300.0 Z-8.5
G1 F800.0 Y0.0
G3 X0.0 Y-1.5 I1.5 J0.0
G1 X60.0
G3 X61.5 Y0.0 I0.0 J1.5
G1 Y13.0
G3 X58.0 Y16.5 I-3.5 J0.0
G1 X52.0
G3 X48.5 Y13.0 I0.0 J-3.5
G1 Y6.5
G1 X11.5
G1 Y13.0
G3 X8.0 Y16.5 I-3.5 J0.0
G1 X2.0
G3 X-1.5 Y13.0 I0.0 J-3.5
G1 F300.0 Z-9.0
G1 F800.0 Y0.0
G3 X0.0 Y-1.5 I1.5 J0.0
G1 X60.0
G3 X61.5 Y0.0 I0.0 J1.5
G1 Y13.0
G3 X58.0 Y16.5 I-3.5 J0.0
G1 X52.0
G3 X48.5 Y13.0 I0.0 J-3.5
G1 Y6.5
G1 X11.5
G1 Y13.0
G3 X8.0 Y16.5 I-3.5 J0.0
G1 X2.0
G3 X-1.5 Y13.0 I0.0 J-3.5
G1 F300.0 Z-9.5
G1 F800.0 Y0.0
G3 X0.0 Y-1.5 I1.5 J0.0
G1 X60.0
G3 X61.5 Y0.0 I0.0 J1.5
G1 Y13.0
G3 X58.0 Y16.5 I-3.5 J0.0
G1 X52.0
G3 X48.5 Y13.0 I0.0 J-3.5
G1 Y6.5
G1 X11.5
G1 Y13.0
G3 X8.0 Y16.5 I-3.5 J0.0
G1 X2.0
G3 X-1.5 Y13.0 I0.0 J-3.5
G1 F300.0 Z-10.0
G1 F800.0 Y0.0
G3 X0.0 Y-1.5 I1.5 J0.0
G1 X60.0
G3 X61.5 Y0.0 I0.0 J1.5
G1 Y13.0
G3 X58.0 Y16.5 I-3.5 J0.0
G1 X52.0
G3 X48.5 Y13.0 I0.0 J-3.5
G1 Y6.5
G1 X11.5
G1 Y13.0
G3 X8.0 Y16.5 I-3.5 J0.0
G1 X2.0
G3 X-1.5 Y13.0 I0.0 J-3.5
G0 Z3.0
M5
M30
